X: 16800
T: Harris Dance
R: reel
M: 4/4
K: Dmajor
|:d2 af a2 b2|a2 f a2 ffe|d2 af a2 b2|afef B3 A:|
|:f2 ed B2 A2|ff ed B2 A2|f2 ed BB AB|dedB A4:|

